static/images/user-logos/kupibilet.svg

<svg xmlns="http://www.w3.org/2000/svg" xmlns:xlink="http://www.w3.org/1999/xlink" width="132" height="24" viewBox="0 0 132 24">
  <defs>
    <polygon id="kpblt_logo_s_color-a" points=".499 .51 2.999 .51 2.999 3.01 .499 3.01 .499 .51"/>
    <polygon id="kpblt_logo_s_color-c" points="5.843 .754 5.843 7.87 .555 7.87 .555 .754 5.843 .754"/>
    <polygon id="kpblt_logo_s_color-e" points="0 23.491 130.843 23.491 130.843 1 0 1"/>
  </defs>
  <g fill="none" fill-rule="evenodd" transform="translate(.25 -.24)">
    <path fill="#008AE6" d="M114.9989 22.2405C114.9989 22.9305 114.4389 23.4905 113.7489 23.4905 113.0589 23.4905 112.4989 22.9305 112.4989 22.2405 112.4989 21.5505 113.0589 20.9905 113.7489 20.9905 114.4389 20.9905 114.9989 21.5505 114.9989 22.2405zM114.9989 18.2424C114.9989 17.5524 114.4389 16.9924 113.7489 16.9924 113.0589 16.9924 112.4989 17.5524 112.4989 18.2424 112.4989 18.9324 113.0589 19.4924 113.7489 19.4924 114.4389 19.4924 114.9989 18.9324 114.9989 18.2424M114.9989 14.2448C114.9989 13.5548 114.4389 12.9948 113.7489 12.9948 113.0589 12.9948 112.4989 13.5548 112.4989 14.2448 112.4989 14.9348 113.0589 15.4948 113.7489 15.4948 114.4389 15.4948 114.9989 14.9348 114.9989 14.2448M114.9989 10.2462C114.9989 9.5562 114.4389 8.9962 113.7489 8.9962 113.0589 8.9962 112.4989 9.5562 112.4989 10.2462 112.4989 10.9362 113.0589 11.4962 113.7489 11.4962 114.4389 11.4962 114.9989 10.9362 114.9989 10.2462M114.9989 6.2481C114.9989 5.5581 114.4389 4.9981 113.7489 4.9981 113.0589 4.9981 112.4989 5.5581 112.4989 6.2481 112.4989 6.9381 113.0589 7.4981 113.7489 7.4981 114.4389 7.4981 114.9989 6.9381 114.9989 6.2481"/>
    <g transform="translate(112 .49)">
      <mask id="kpblt_logo_s_color-b" fill="#fff">
        <use xlink:href="#kpblt_logo_s_color-a"/>
      </mask>
      <path fill="#008AE6" d="M2.9989,1.7595 C2.9989,1.0695 2.4389,0.5095 1.7489,0.5095 C1.0589,0.5095 0.4989,1.0695 0.4989,1.7595 C0.4989,2.4495 1.0589,3.0095 1.7489,3.0095 C2.4389,3.0095 2.9989,2.4495 2.9989,1.7595" mask="url(#kpblt_logo_s_color-b)"/>
    </g>
    <path fill="#008AE6" d="M122.0665,7.5187 C123.0165,7.5187 123.5405,7.1127 123.5405,6.3217 C123.5405,5.5207 123.0165,5.2427 122.0665,5.2427 L121.0725,5.2427 L121.0725,7.5187 L122.0665,7.5187 Z M119.8335,4.2487 L122.1945,4.2487 C123.6475,4.2487 124.7575,4.7627 124.7575,6.3217 C124.7575,7.3897 124.2025,8.0317 123.3695,8.3197 L125.0365,11.2367 L123.6475,11.2367 L122.1415,8.5017 L121.0725,8.5017 L121.0725,11.2367 L119.8335,11.2367 L119.8335,4.2487 Z"/>
    <g transform="translate(125 3.49)">
      <mask id="kpblt_logo_s_color-d" fill="#fff">
        <use xlink:href="#kpblt_logo_s_color-c"/>
      </mask>
      <path fill="#008AE6" d="M0.5551,4.6753 L0.5551,0.7543 L1.7941,0.7543 L1.7941,4.7713 C1.7941,6.2893 2.3601,6.7903 3.2041,6.7903 C4.0591,6.7903 4.6571,6.2893 4.6571,4.7713 L4.6571,0.7543 L5.8431,0.7543 L5.8431,4.6753 C5.8431,6.9723 4.8291,7.8703 3.2041,7.8703 C1.5911,7.8703 0.5551,6.9723 0.5551,4.6753" mask="url(#kpblt_logo_s_color-d)"/>
    </g>
    <polygon fill="#008AE6" points="9.488 20.241 5.052 12.535 2.605 15.532 2.605 20.241 0 20.241 0 4.249 2.605 4.249 2.605 11.527 2.854 11.527 8.614 4.249 11.575 4.249 6.682 10.458 12.444 20.241"/>
    <path fill="#008AE6" d="M20.2868 20.4933C18.3678 20.4933 16.9078 19.9303 15.9068 18.8203 14.8178 17.6103 14.2848 15.7153 14.2848 13.1903L14.2848 4.2493 16.8898 4.2493 16.8898 13.4123C16.8898 16.6173 17.9978 18.1753 20.2548 18.1753 22.5778 18.1753 23.7178 16.6173 23.7178 13.4123L23.7178 4.2493 26.3228 4.2493 26.3228 13.1903C26.3228 15.7213 25.7678 17.6153 24.6918 18.8203 23.7008 19.9303 22.2128 20.4933 20.2868 20.4933M32.522 12.155L34.702 12.155C37.159 12.155 38.353 11.152 38.353 9.111 38.353 7.159 37.231 6.315 34.603 6.315L32.522 6.315 32.522 12.155zM29.827 20.241L29.827 4.249 34.826 4.249C36.74 4.249 38.228 4.588 39.247 5.299 40.404 6.107 40.991 7.365 40.991 9.101 40.991 12.327 38.724 14.221 34.925 14.221L32.522 14.221 32.522 20.241 29.827 20.241z"/>
    <mask id="kpblt_logo_s_color-f" fill="#fff">
      <use xlink:href="#kpblt_logo_s_color-e"/>
    </mask>
    <polygon fill="#008AE6" points="44.111 20.241 46.806 20.241 46.806 4.25 44.111 4.25" mask="url(#kpblt_logo_s_color-f)"/>
    <path fill="#008AE6" d="M53.3649,10.8972 L55.4699,10.8972 C58.2009,10.8972 58.7739,9.5902 58.7739,8.5112 C58.7739,6.9452 57.7699,6.2252 55.5189,6.2252 L53.3649,6.2252 L53.3649,10.8972 Z M53.3649,18.1742 L55.8409,18.1742 C58.3259,18.1742 59.6389,17.2182 59.6389,15.4132 C59.6389,13.7052 58.3969,12.8732 55.8409,12.8732 L53.3649,12.8732 L53.3649,18.1742 Z M50.6699,20.2402 L50.6699,4.2492 L55.7169,4.2492 C59.4969,4.2492 61.4129,5.5362 61.4129,8.1182 C61.4129,9.7082 60.5539,11.0742 59.2439,11.5342 L59.2049,11.5442 L59.2049,11.7782 L59.2539,11.7942 C61.1739,12.2212 62.2639,13.5862 62.2639,15.5392 C62.2639,17.0602 61.6769,18.2642 60.5289,19.0762 C59.4709,19.8232 57.9489,20.2402 56.1369,20.2402 L50.6699,20.2402 Z" mask="url(#kpblt_logo_s_color-f)"/>
    <polygon fill="#008AE6" points="65.314 20.241 68.009 20.241 68.009 4.25 65.314 4.25" mask="url(#kpblt_logo_s_color-f)"/>
    <polygon fill="#008AE6" points="72.321 20.241 72.321 4.249 74.926 4.249 74.926 17.995 81.664 17.995 81.664 20.241" mask="url(#kpblt_logo_s_color-f)"/>
    <polygon fill="#008AE6" points="84.18 20.241 84.18 4.249 93.793 4.249 93.793 6.406 86.875 6.406 86.875 10.718 92.715 10.718 92.715 12.964 86.875 12.964 86.875 17.995 94.062 17.995 94.062 20.241" mask="url(#kpblt_logo_s_color-f)"/>
    <polygon fill="#008AE6" points="101.25 20.241 101.25 6.406 96.578 6.406 96.578 4.249 108.617 4.249 108.617 6.406 103.945 6.406 103.945 20.241" mask="url(#kpblt_logo_s_color-f)"/>
  </g>
</svg>

<svg height="24" viewBox="0 0 132 24" width="132" xmlns="http://www.w3.org/2000/svg" xmlns:xlink="http://www.w3.org/1999/xlink"><mask id="a" fill="#fff"><path d="m.499.51h2.5v2.5h-2.5z" fill="#fff" fill-rule="evenodd"/></mask><mask id="b" fill="#fff"><path d="m5.843.754v7.116h-5.288v-7.116z" fill="#fff" fill-rule="evenodd"/></mask><mask id="c" fill="#fff"><path d="m0 23.491h130.843v-22.491h-130.843z" fill="#fff" fill-rule="evenodd"/></mask><g fill="#008ae6" fill-rule="evenodd" transform="translate(.25 -.24)"><path d="m114.9989 22.2405c0 .69-.56 1.25-1.25 1.25s-1.25-.56-1.25-1.25.56-1.25 1.25-1.25 1.25.56 1.25 1.25zm0-3.9981c0-.69-.56-1.25-1.25-1.25s-1.25.56-1.25 1.25.56 1.25 1.25 1.25 1.25-.56 1.25-1.25m0-3.9976c0-.69-.56-1.25-1.25-1.25s-1.25.56-1.25 1.25.56 1.25 1.25 1.25 1.25-.56 1.25-1.25m0-3.9986c0-.69-.56-1.25-1.25-1.25s-1.25.56-1.25 1.25.56 1.25 1.25 1.25 1.25-.56 1.25-1.25m0-3.9981c0-.69-.56-1.25-1.25-1.25s-1.25.56-1.25 1.25.56 1.25 1.25 1.25 1.25-.56 1.25-1.25"/><path d="m2.9989 1.7595c0-.69-.56-1.25-1.25-1.25s-1.25.56-1.25 1.25.56 1.25 1.25 1.25 1.25-.56 1.25-1.25" mask="url(#a)" transform="translate(112 .49)"/><path d="m122.0665 7.5187c.95 0 1.474-.406 1.474-1.197 0-.801-.524-1.079-1.474-1.079h-.994v2.276zm-2.233-3.27h2.361c1.453 0 2.563.514 2.563 2.073 0 1.068-.555 1.71-1.388 1.998l1.667 2.917h-1.389l-1.506-2.735h-1.069v2.735h-1.239z"/><path d="m.5551 4.6753v-3.921h1.239v4.017c0 1.518.566 2.019 1.41 2.019.855 0 1.453-.501 1.453-2.019v-4.017h1.186v3.921c0 2.297-1.014 3.195-2.639 3.195-1.613 0-2.649-.898-2.649-3.195" mask="url(#b)" transform="translate(125 3.49)"/><path d="m9.488 20.241-4.436-7.706-2.447 2.997v4.709h-2.605v-15.992h2.605v7.278h.249l5.76-7.278h2.961l-4.893 6.209 5.762 9.783z"/><path d="m20.2868 20.4933c-1.919 0-3.379-.563-4.38-1.673-1.089-1.21-1.622-3.105-1.622-5.63v-8.941h2.605v9.163c0 3.205 1.108 4.763 3.365 4.763 2.323 0 3.463-1.558 3.463-4.763v-9.163h2.605v8.941c0 2.531-.555 4.425-1.631 5.63-.991 1.11-2.479 1.673-4.405 1.673m12.2352-8.3383h2.18c2.457 0 3.651-1.003 3.651-3.044 0-1.952-1.122-2.796-3.75-2.796h-2.081zm-2.695 8.086v-15.992h4.999c1.914 0 3.402.339 4.421 1.05 1.157.808 1.744 2.066 1.744 3.802 0 3.226-2.267 5.12-6.066 5.12h-2.403v6.02z"/><path d="m44.111 20.241h2.695v-15.991h-2.695z" mask="url(#c)"/><path d="m53.3649 10.8972h2.105c2.731 0 3.304-1.307 3.304-2.386 0-1.566-1.004-2.286-3.255-2.286h-2.154zm0 7.277h2.476c2.485 0 3.798-.956 3.798-2.761 0-1.708-1.242-2.54-3.798-2.54h-2.476zm-2.695 2.066v-15.991h5.047c3.78 0 5.696 1.287 5.696 3.869 0 1.59-.859 2.956-2.169 3.416l-.039.01v.234l.049.016c1.92.427 3.01 1.792 3.01 3.745 0 1.521-.587 2.725-1.735 3.537-1.058.747-2.58 1.164-4.392 1.164z" mask="url(#c)"/><path d="m65.314 20.241h2.695v-15.991h-2.695z" mask="url(#c)"/><path d="m72.321 20.241v-15.992h2.605v13.746h6.738v2.246z" mask="url(#c)"/><path d="m84.18 20.241v-15.992h9.613v2.157h-6.918v4.312h5.84v2.246h-5.84v5.031h7.187v2.246z" mask="url(#c)"/><path d="m101.25 20.241v-13.835h-4.672v-2.157h12.039v2.157h-4.672v13.835z" mask="url(#c)"/></g></svg>
